src/icons/colorSecurity.svg

<svg class="icon" viewBox="0 0 48 48" fill="none" xmlns="http://www.w3.org/2000/svg">
    <rect width="48" height="48" fill="white"/>
    <path d="M39.9074 7.11979C34.8706 5.01253 29.458 3.95167 23.9984 4.00169C18.5384 3.95237 13.1253 5.01321 8.08778 7.11979C7.35182 7.43782 6.72453 7.9635 6.28267 8.63249C5.84082 9.30149 5.60358 10.0848 5.59998 10.8865V23.0588C5.66321 27.4172 7.05545 31.6524 9.59057 35.1983C12.1257 38.7441 15.6829 41.4315 19.7865 42.9012L21.574 43.5682C23.1396 44.1439 24.8589 44.1439 26.4245 43.5682L28.2087 42.9012C32.3129 41.4322 35.8707 38.745 38.4062 35.199C40.9417 31.6531 42.334 27.4175 42.3969 23.0588V10.8865C42.3933 10.0845 42.1559 9.30103 41.7137 8.63197C41.2715 7.96292 40.6438 7.43739 39.9074 7.11979Z" fill="url(#paint0_linear)"/>
    <path opacity="0.5" d="M8.08778 7.1198C13.1253 5.01322 18.5384 3.95239 23.9984 4.00171L24 44C23.1785 44.0001 22.357 43.8562 21.574 43.5682L19.7865 42.9012C15.6829 41.4315 12.1257 38.7441 9.59057 35.1983C7.05545 31.6524 5.66321 27.4172 5.59998 23.0588V10.8865C5.60358 10.0848 5.84082 9.3015 6.28267 8.63251C6.72453 7.96351 7.35182 7.43783 8.08778 7.1198Z" fill="#7878C9"/>
    <path d="M23.9894 5.00165L23.9985 5.00173L24.0076 5.00165C29.3296 4.95289 34.6059 5.98663 39.5161 8.04006C40.0718 8.28082 40.5455 8.67803 40.8795 9.18334C41.2139 9.68942 41.3937 10.282 41.3969 10.8885V23.0514C41.3355 27.204 40.0084 31.239 37.5927 34.6174C35.1757 37.9977 31.7841 40.5593 27.8717 41.9597L27.8717 41.9596L27.8585 41.9645L26.0794 42.6296C26.0787 42.6299 26.078 42.6301 26.0774 42.6304C24.7359 43.1232 23.2628 43.1232 21.9213 42.6304C21.9206 42.6302 21.9199 42.6299 21.9191 42.6296L20.1361 41.9643L20.1361 41.9642L20.1237 41.9598C16.2117 40.5587 12.8207 37.9968 10.404 34.6167C7.98875 31.2384 6.66167 27.2037 6.59998 23.0514V10.8889C6.60311 10.2823 6.78279 9.68979 7.1171 9.18361C7.45079 8.67839 7.92408 8.28107 8.47938 8.03995C13.3902 5.98725 18.6669 4.95357 23.9894 5.00165Z" stroke="#EBECF0" stroke-width="2"/>
    <g clip-path="url(#clip0)">
        <path d="M23.9999 14C19.0388 14 15 18.0389 15 23C15 27.9611 19.0388 32 23.9999 32C28.961 32 32.9998 27.9611 32.9998 23C33.0316 18.0389 28.9928 14 23.9999 14Z" fill="url(#paint1_linear)"/>
        <mask id="mask0" mask-type="alpha" maskUnits="userSpaceOnUse" x="15" y="14" width="18" height="18">
            <path d="M23.9999 14C19.0388 14 15 18.0389 15 23C15 27.9611 19.0388 32 23.9999 32C28.961 32 32.9998 27.9611 32.9998 23C33.0316 18.0389 28.9928 14 23.9999 14Z" fill="url(#paint2_linear)"/>
        </mask>
        <g mask="url(#mask0)">
            <path d="M33 32V14L15 32H33Z" fill="url(#paint3_linear)"/>
        </g>
        <path opacity="0.5" d="M24.0394 15.5C19.9051 15.5 16.5394 18.8657 16.5394 23C16.5394 27.1343 19.9051 30.5 24.0394 30.5C28.1736 30.5 31.5393 27.1343 31.5393 23C31.5658 18.8657 28.2001 15.5 24.0394 15.5V15.5Z" stroke="#E99B26" stroke-width="0.7125"/>
        <path d="M24.3741 18.6459C25.3326 18.7714 26.1233 19.1729 26.5306 19.7752C26.6025 19.9007 26.6504 20.0261 26.6504 20.1767C26.6504 20.5532 26.3629 20.8543 26.0035 20.8543C25.8357 20.8543 25.668 20.7539 25.5003 20.5783C25.1169 20.2018 24.494 19.9007 23.8231 19.9007C22.8167 19.9007 22.4573 20.4026 22.4573 20.9045C22.4573 22.5608 26.8421 21.7829 26.8421 24.9198C26.8421 26.3001 26.0035 27.2036 24.3981 27.3792V28.0819C24.3981 28.4082 24.1345 28.6842 23.8231 28.6842C23.5116 28.6842 23.272 28.4082 23.272 28.0819V27.3792C22.0979 27.2287 21.1874 26.5762 20.78 25.8735C20.7321 25.7731 20.6842 25.6476 20.6842 25.5221C20.6842 25.1457 20.9717 24.8446 21.3311 24.8446C21.5947 24.8446 21.7385 24.9951 21.8583 25.1206C22.3615 25.6476 23.0084 26.0742 23.8231 26.0742C24.9252 26.0742 25.4524 25.6978 25.4524 24.9198C25.4524 23.0878 21.0676 23.916 21.0676 20.9045C21.0676 19.7752 21.7385 18.8215 23.272 18.6459V17.9181C23.272 17.5919 23.5355 17.3158 23.8231 17.3158C24.1345 17.3158 24.3981 17.5919 24.3981 17.9181V18.6459H24.3741Z" fill="#A76013"/>
    </g>
    <defs>
        <linearGradient id="paint0_linear" x1="24" y1="-15.5" x2="23.9984" y2="44" gradientUnits="userSpaceOnUse">
            <stop stop-color="#ADADED"/>
            <stop offset="1" stop-color="#7878C9"/>
        </linearGradient>
        <linearGradient id="paint1_linear" x1="24.0395" y1="51.125" x2="24.0395" y2="14" gradientUnits="userSpaceOnUse">
            <stop stop-color="#E99B26"/>
            <stop offset="1" stop-color="#FAC34B"/>
        </linearGradient>
        <linearGradient id="paint2_linear" x1="24.0395" y1="51.125" x2="24.0395" y2="14" gradientUnits="userSpaceOnUse">
            <stop stop-color="#413017"/>
            <stop offset="1" stop-color="#FAC34B"/>
        </linearGradient>
        <linearGradient id="paint3_linear" x1="24.225" y1="32" x2="30.525" y2="16.925" gradientUnits="userSpaceOnUse">
            <stop stop-color="#E99B26" stop-opacity="0.26"/>
            <stop offset="1" stop-color="#FAC34B"/>
        </linearGradient>
        <clipPath id="clip0">
            <rect width="18" height="18" fill="white" transform="translate(15 14)"/>
        </clipPath>
    </defs>
</svg>

<svg class="icon" fill="none" viewBox="0 0 48 48" xmlns="http://www.w3.org/2000/svg">
    <rect width="48" height="48" fill="#fff"/>
    <path d="m39.907 7.1198c-5.0368-2.1073-10.449-3.1681-15.909-3.1181-5.46-0.04932-10.873 1.0115-15.911 3.1181-0.73596 0.31803-1.3632 0.84371-1.8051 1.5127-0.44185 0.669-0.67909 1.4523-0.68269 2.254v12.172c0.06323 4.3584 1.4555 8.5936 3.9906 12.14 2.5351 3.5458 6.0923 6.2332 10.196 7.7029l1.7875 0.667c1.5656 0.5757 3.2849 0.5757 4.8505 0l1.7842-0.667c4.1042-1.469 7.662-4.1562 10.198-7.7022 2.5355-3.5459 3.9278-7.7815 3.9907-12.14v-12.172c-0.0036-0.802-0.241-1.5855-0.6832-2.2545-0.4422-0.66905-1.0699-1.1946-1.8063-1.5122z" fill="url(#d)"/>
    <path d="m8.0878 7.1198c5.0375-2.1066 10.451-3.1674 15.911-3.1181l0.0016 39.998c-0.8215 1e-4 -1.643-0.1438-2.426-0.4318l-1.7875-0.667c-4.1036-1.4697-7.6608-4.1571-10.196-7.7029-2.5351-3.5459-3.9274-7.7811-3.9906-12.14v-12.172c0.0036-0.8017 0.24084-1.585 0.68269-2.254 0.44186-0.669 1.0692-1.1947 1.8051-1.5127z" fill="#7878C9" opacity=".5"/>
    <path d="m23.989 5.0016 0.0091 8e-5 0.0091-8e-5c5.322-0.04876 10.598 0.98498 15.508 3.0384 0.5557 0.24076 1.0294 0.63797 1.3634 1.1433 0.3344 0.50608 0.5142 1.0987 0.5174 1.7052v12.163c-0.0614 4.1526-1.3885 8.1876-3.8042 11.566-2.417 3.3803-5.8086 5.9419-9.721 7.3423v-1e-4l-0.0132 0.0049-1.7791 0.6651c-7e-4 3e-4 -0.0014 5e-4 -2e-3 8e-4 -1.3415 0.4928-2.8146 0.4928-4.1561 0-7e-4 -2e-4 -0.0014-5e-4 -0.0022-8e-4l-1.783-0.6653v-1e-4l-0.0124-0.0044c-3.912-1.4011-7.303-3.963-9.7197-7.3431-2.4152-3.3783-3.7423-7.413-3.804-11.565v-12.162c0.00313-0.6066 0.18281-1.1991 0.51712-1.7053 0.33369-0.50522 0.80698-0.90254 1.3623-1.1437 4.9108-2.0527 10.188-3.0864 15.51-3.0383z" stroke="#EBECF0" stroke-width="2"/>
    <g clip-path="url(#f)">
        <path d="m24 14c-4.9611 0-8.9999 4.0389-8.9999 9s4.0388 9 8.9999 9 8.9999-4.0389 8.9999-9c0.0318-4.9611-4.007-9-8.9999-9z" fill="url(#c)"/>
        <mask id="e" x="15" y="14" width="18" height="18" mask-type="alpha" maskUnits="userSpaceOnUse">
            <path d="m24 14c-4.9611 0-8.9999 4.0389-8.9999 9s4.0388 9 8.9999 9 8.9999-4.0389 8.9999-9c0.0318-4.9611-4.007-9-8.9999-9z" fill="url(#b)"/>
        </mask>
        <g mask="url(#e)">
            <path d="M33 32V14L15 32H33Z" fill="url(#a)"/>
        </g>
        <path d="m24.039 15.5c-4.1343 0-7.5 3.3657-7.5 7.5s3.3657 7.5 7.5 7.5c4.1342 0 7.4999-3.3657 7.4999-7.5 0.0265-4.1343-3.3392-7.5-7.4999-7.5z" opacity=".5" stroke="#E99B26" stroke-width=".7125"/>
        <path d="m24.374 18.646c0.9585 0.1255 1.7492 0.527 2.1565 1.1293 0.0719 0.1255 0.1198 0.2509 0.1198 0.4015 0 0.3765-0.2875 0.6776-0.6469 0.6776-0.1678 0-0.3355-0.1004-0.5032-0.276-0.3834-0.3765-1.0063-0.6776-1.6772-0.6776-1.0064 0-1.3658 0.5019-1.3658 1.0038 0 1.6563 4.3848 0.8784 4.3848 4.0153 0 1.3803-0.8386 2.2838-2.444 2.4594v0.7027c0 0.3263-0.2636 0.6023-0.575 0.6023-0.3115 0-0.5511-0.276-0.5511-0.6023v-0.7027c-1.1741-0.1505-2.0846-0.803-2.492-1.5057-0.0479-0.1004-0.0958-0.2259-0.0958-0.3514 0-0.3764 0.2875-0.6775 0.6469-0.6775 0.2636 0 0.4074 0.1505 0.5272 0.276 0.5032 0.527 1.1501 0.9536 1.9648 0.9536 1.1021 0 1.6293-0.3764 1.6293-1.1544 0-1.832-4.3848-1.0038-4.3848-4.0153 0-1.1293 0.6709-2.083 2.2044-2.2586v-0.7278c0-0.3262 0.2635-0.6023 0.5511-0.6023 0.3114 0 0.575 0.2761 0.575 0.6023v0.7278h-0.024z" fill="#A76013"/>
    </g>
    <defs>
        <linearGradient id="d" x1="24" x2="23.998" y1="-15.5" y2="44" gradientUnits="userSpaceOnUse">
            <stop stop-color="#ADADED" offset="0"/>
            <stop stop-color="#7878C9" offset="1"/>
        </linearGradient>
        <linearGradient id="c" x1="24.04" x2="24.04" y1="51.125" y2="14" gradientUnits="userSpaceOnUse">
            <stop stop-color="#E99B26" offset="0"/>
            <stop stop-color="#FAC34B" offset="1"/>
        </linearGradient>
        <linearGradient id="b" x1="24.04" x2="24.04" y1="51.125" y2="14" gradientUnits="userSpaceOnUse">
            <stop stop-color="#413017" offset="0"/>
            <stop stop-color="#FAC34B" offset="1"/>
        </linearGradient>
        <linearGradient id="a" x1="24.225" x2="30.525" y1="32" y2="16.925" gradientUnits="userSpaceOnUse">
            <stop stop-color="#E99B26" stop-opacity=".26" offset="0"/>
            <stop stop-color="#FAC34B" offset="1"/>
        </linearGradient>
        <clipPath id="f">
            <rect transform="translate(15 14)" width="18" height="18" fill="#fff"/>
        </clipPath>
    </defs>
</svg>
